X:1
T:Have You Sought?
T:Have You Sought?
T:Ira David Sankey
T:Frances Jane (Fanny) Crosby, 1891
T:Public Domain Courtesy of the Cyber Hymnal™
T:Public Domain Courtesy of the Cyber Hymnal™
C:Ira David Sankey
Z:Public Domain
Z:Courtesy of the Cyber Hymnal™
%%score ( 1 2 ) ( 3 4 )
L:1/8
Q:1/4=100
M:4/4
K:F
V:1 treble 
V:2 treble 
V:3 bass 
V:4 bass 
V:1
 C>[CF] | [FA]2 [FA]>[FA] [FA]2 [FA]>[FA] | (A>B) [Fc]4 [Fc]>[Fc] | %3
w: 1.~Have you|sought for the sheep that have|wan- * dered, Far a-|
w: 2.~Have you|been to the sad and the|lone- * ly, Who- se|
w: 3.~Have you|knelt by the sick and the|dy- * ing, Th- e|
w: 4.~If to|Je- sus you an- swer these|quest- * ions, And to|
 [Ec]2 [EG]>[FA] [GB]2 [FA]>[EG] | [FA]6 C>[CF] | [FA]2 [FA]>[FA] [FA]2 [FA]2 | (A>B) [Fc]4 [Fc]2 | %7
w: way on the dark mount- ains|cold? Have you|gone, like the ten- der|Shep- * herd, To|
w: bur- dens are hea- vy to|bear? Have you|car- ried the name of|Je- * sus, And|
w: mes- sage of mer- cy to|tell? Have you|stood by the tremb- ling|cap- * tive A-|
w: Him have been faith- ful and|true, Then be-|hold, in the man- sions|yon- * der Are|
 [Ec]2 [EG]>[FA] [GB]2 [FA]>[EG] | F6 (F>[_EF]) | [Dd]2 [Fd]>[Fd] [FB]2 [Fd]2 | %10
w: bring them a- gain to the|fold? Have~you *|fol- lowed their wea- ry|
w: ten- der- ly breathed it in|prayer? Have~you *|told of the great sal-|
w: lone in his dark pri- son|cell? Have~you *|point- ed the lost to|
w: crowns of re- joic- ing for|you; And *|there from the King e-|
 [Fc]2 [FA]4 ([Fc]>[Fc]) | [Ec]2 [EG]>[FA] [GB]2 [FA]>[EG] | [FA]6 (F>[_EF]) | %13
w: foot- steps? And~the *|wild de- sert waste have you|crossed, Nor *|
w: va- tion He *|died on the cross to se-|cure? Have~you *|
w: Je- sus, And *|urged them on Him to be-|lieve? Have~you *|
w: ter- nal Your *|wel- come and greet- ing shall|be, “Inas- *|
 [Dd]2 [Fd]>[Fd] [Fe]2 [Fd]>[Fd] | [Fc]2 [FA]4 F>[EF] [FA]2 [FA]>[FB] [FA]2 [EG]>F | F6 x2 |] x6 |] %17
w: lin- gered till safe home re-|turn- ing, You have ga- thered the sheep that were|lost?||
w: asked them to trust in the|Sav- ior, Who- se love shall for- ev- er en-|dure?||
w: told of the life ev- er-|last- ing, Th- at all, if they will, may re-|ceive?||
w: much as ’twas done for My|breth- ren, E- ven so it was done un- to|Me.”||
V:2
 C3/2 x/ | x8 | F2 x6 | x8 | x6 C3/2 x/ | x8 | F2 x6 | x8 | F6 F3/2 x/ | x8 | x8 | x8 | %12
 x6 F3/2 x/ | x8 | x6 F3/2 x13/2 F/ x3/2 | F6 x2 |] x6 |] %17
V:3
 [F,A,]>[F,A,] | [F,C]2 [F,C]>[F,C] [F,C]2 [F,C]>[F,C] | (F,>G,) [F,A,]4 [F,A,]>[F,A,] | %3
 [C,G,]2 [C,C]>[C,C] [C,C]2 [C,C]>[C,C] | [F,C]6 [F,A,]>[F,A,] | [F,C]2 [F,C]>[F,C] [F,C]2 [F,C]2 | %6
 (F,>G,) [F,A,]4 [F,A,]2 | [C,G,]2 [C,C]>[C,C] [C,C]2 [C,C]>[C,B,] | [F,A,]6 ([F,A,]>[F,A,]) | %9
 [B,,B,]2 [B,,B,]>[B,,B,] [D,B,]2 [B,,B,]2 | [F,A,]2 [F,C]4 ([F,A,]>[F,A,]) | %11
 [C,G,]2 [C,C]>[C,C] [C,C]2 [C,C]>[C,C] | [F,C]6 ([F,A,]>[F,A,]) | %13
 [B,,B,]2 [B,,B,]>[B,,B,] [B,,C]2 [B,,B,]>[D,B,] | [F,A,]2 [F,C]4 [A,,C]>[B,,D] x8 | %15
 [C,C]2 [C,C]>[C,D] [C,C]2 [C,B,]>[F,A,] |] [F,A,]6 |] %17
V:4
 x2 | x8 | F,2 x6 | x8 | x8 | x8 | F,2 x6 | x8 | x8 | x8 | x8 | x8 | x8 | x8 | x16 | x8 |] x6 |] %17

